X:1
T:James Gibb editions
T:Saviour, again to Thy dear Name we raise - Barnby
%%score [ ( 1 2 ) ( 3 4 ) ]
L:1/8
Q:1/4=100
M:4/4
K:Eb
V:1 treble nm="Midi_74"
V:2 treble 
V:3 bass nm="Midi_74"
V:4 bass 
V:1
"^John Ellerton\n(1826-93)""^Saviour, again to Thy dear Name we raise""^10 10. 10 10""^Joseph Barnby\n(1838-96)" G4 G2 A2 | %1
 B2 G2 F2 E2 | E4 D4 | E8 || G4 G2 =A2 | B2"^1" d2 c2 G2 | B4 =A4 | B8 ||[M:4/4] F4 E2 E2 | A4 G4 | %10
 B2 B2 A2 B2 | c8 || !courtesy!=d4 e2 B2 | A2 A2 G2 B2 | E6 F2 | G8 || B4 G4 |] %17
V:2
 B,4 E2 E2 | E2 D2 C2 C2 | B,4 B,4 | B,8 || E4 G2 G2 | G2 F2 E2 G2 | F4 E4 | D8 || %8
[M:4/4] D4 E2 B,2 | (C2 D2) E4 | E2 E2 E2 G2 | A8 || F4 E2 E2 | E2 F2 B,2 !courtesy!=D2 | C4 C4 | %15
 B,8 || D4 B,4 |] %17
V:3
 E,4 E,2 F,2 | G,2 B,2 A,2 G,2 | F,4 F,4 | G,8 || B,4 E2 E2 | D2 B,2 G,2 E2 | D4 C4 | B,8 || %8
[M:4/4]"^1. Saviour, again to Thy dear Name we raise\n   With one accord our parting hymn of praise;\n   We stand to bless Thee, ere our worship cease,\n   Then, lowly kneeling, wait Thy word of peace.\n\n2. Grant us Thy peace upon our homeward way;\n   With Thee began, with Thee shall end the day;    \n   Guard Thou the lips from sin, the hearts from shame,\n   That in Thy house have called upon Thy name." B,4 B,2 G,2 | %9
 A,4 B,4 | G,2 G,2 A,2 _D2 | C8 || %12
"^3. Grant us Thy peace, Lord, through the coming night;\n   Turn Thou for us its darkness into light;\n   From harm and danger keep Thy children free,\n   For dark and light are both alike to Thee.\n\n4. Grant us Thy peace throughout our earthly life;\n   Our balm in sorrow, and our stay in strife;\n   Then, when Thy voice shall bid our conflict cease,\n   Call us, O Lord, to Thine eternal peace." B,4 B,2 B,2 | %13
 C2 D2 E2 B,2 | B,4 A,4 | G,8 || F,4 G,4 |] %17
V:4
 E,4 C,2 C,2 | G,,2 G,,2 A,,2 A,,2 | B,,4 B,,4 | E,8 || E,4 C,2 C,2 | G,2 G,2 C,2 C,2 | F,4 F,4 | %7
 B,,8 ||[M:4/4] A,4 G,2 G,2 | F,4 E,4 | _D,2 D,2 C,2 B,,2 | A,,8 || A,4 G,2 G,2 | %13
 F,2 B,,2 E,2 G,,2 | A,,4 A,,4 | E,8 || B,,4 E,4 |] %17

